public/images/case-studies/speakinc/feature7.svg

<svg width="64" height="64" viewBox="0 0 64 64" fill="none" xmlns="http://www.w3.org/2000/svg">
<path d="M56.671 41.7114C57.7776 40.2999 58.3084 38.7867 58.2406 37.2284C58.1728 35.5119 57.405 34.1681 56.7726 33.3438C57.5066 31.5144 57.7889 28.6349 55.3385 26.399C53.543 24.7616 50.4941 24.0276 46.2707 24.2309C43.3008 24.3664 40.8165 24.9197 40.7149 24.9423H40.7036C40.139 25.0439 39.5405 25.1681 38.9307 25.3036C38.8855 24.5809 39.0097 22.7854 40.3422 18.7428C41.9232 13.9322 41.8328 10.2509 40.0486 7.78921C38.1741 5.20326 35.1816 5 34.3008 5C33.4539 5 32.6747 5.35006 32.1214 5.99373C30.8679 7.45044 31.0147 10.138 31.1728 11.3802C29.6822 15.3777 25.5041 25.1794 21.9696 27.9009C21.9018 27.946 21.8454 28.0025 21.7889 28.059C20.7998 29.1019 19 31.0991 19 31.0991V58.8419C19 58.8419 30.3372 58.9887 37.7563 58.8419C39.1001 58.9435 40.3648 59 41.5392 59C43.5606 59 45.3222 58.8419 46.7902 58.5257C50.2456 57.7917 52.6057 56.3237 53.8027 54.1669C54.7174 52.5182 54.7174 50.8808 54.5706 49.8419C56.8178 47.8093 57.213 45.5621 57.1339 43.9812C57.0888 43.0665 56.8855 42.2873 56.671 41.7114ZM53.7801 40.3902C53.3058 40.8871 53.2155 41.6437 53.5769 42.2309C53.5769 42.2422 54.0398 43.0326 54.0963 44.1167C54.1754 45.596 53.4639 46.9059 51.9734 48.0238C51.4426 48.4304 51.2281 49.1305 51.4539 49.7629C51.4539 49.7742 51.9395 51.2647 51.149 52.6763C50.3924 54.0314 48.7099 55.0025 46.1578 55.5445C44.1139 55.9849 41.336 56.064 37.9257 55.793C37.8805 55.793 37.824 55.793 37.7676 55.793C30.5066 55.9511 23.1666 55.0025 23.0875 54.9912H23.0762L21.9357 54.8557C22.0035 54.5395 22.0373 54.2008 22.0373 53.862V35.5006C22.0373 35.0151 21.9583 34.5408 21.8228 34.1004C22.026 33.3438 22.5907 31.6612 23.9232 30.2271C28.9934 26.207 33.9508 12.6449 34.1653 12.0577C34.2556 11.8206 34.2782 11.5609 34.2331 11.3011C34.0411 10.0364 34.1088 8.48933 34.3799 8.02635C34.9784 8.03764 36.5932 8.20703 37.5643 9.55082C38.7161 11.143 38.671 13.9887 37.4288 17.7604C35.5317 23.5082 35.3736 26.5345 36.8755 27.867C37.6208 28.5332 38.6145 28.5671 39.3372 28.3074C40.026 28.1493 40.681 28.0138 41.3021 27.9122C41.3473 27.9009 41.4037 27.8896 41.4489 27.8783C44.9156 27.1217 51.1264 26.6587 53.2833 28.6236C55.1126 30.2949 53.814 32.5082 53.6672 32.7453C53.2494 33.3777 53.3736 34.202 53.9382 34.7102C53.9495 34.7215 55.1352 35.8394 55.1917 37.3413C55.2368 38.3463 54.7626 39.3739 53.7801 40.3902Z" fill="#FF6B00"/>
<rect x="6.5" y="31.5" width="14" height="26" rx="2.5" stroke="#7F8284" stroke-width="3"/>
</svg>

<svg xmlns="http://www.w3.org/2000/svg" width="64" height="64" fill="none" xmlns:v="https://vecta.io/nano"><path d="M56.671 41.711c1.107-1.411 1.637-2.925 1.57-4.483-.068-1.717-.836-3.06-1.468-3.885.734-1.829 1.016-4.709-1.434-6.945-1.796-1.637-4.844-2.371-9.068-2.168-2.97.136-5.454.689-5.556.711h-.011l-1.773.361c-.045-.723.079-2.518 1.411-6.561 1.581-4.811 1.491-8.492-.294-10.954C38.174 5.203 35.182 5 34.301 5c-.847 0-1.626.35-2.179.994-1.254 1.457-1.107 4.144-.949 5.386-1.491 3.998-5.669 13.799-9.203 16.521-.068.045-.124.102-.181.158C20.8 29.102 19 31.099 19 31.099v27.743h18.756c1.344.102 2.608.158 3.783.158 2.021 0 3.783-.158 5.251-.474 3.455-.734 5.816-2.202 7.013-4.359.915-1.649.915-3.286.768-4.325 2.247-2.033 2.642-4.28 2.563-5.861a7.63 7.63 0 0 0-.463-2.27zM53.78 40.39c-.474.497-.565 1.254-.203 1.841 0 .011.463.802.519 1.886.079 1.479-.632 2.789-2.123 3.907a1.54 1.54 0 0 0-.52 1.739c0 .011.486 1.502-.305 2.913-.757 1.355-2.439 2.326-4.991 2.868-2.044.44-4.822.52-8.232.248h-.158c-7.261.158-14.601-.791-14.68-.802h-.011l-1.14-.136a4.78 4.78 0 0 0 .102-.994V35.501c0-.486-.079-.96-.214-1.4.203-.757.768-2.439 2.1-3.873 5.07-4.02 10.028-17.582 10.242-18.169a1.43 1.43 0 0 0 .068-.757c-.192-1.265-.124-2.812.147-3.275.599.011 2.213.181 3.184 1.524 1.152 1.592 1.107 4.438-.136 8.21-1.897 5.748-2.055 8.774-.553 10.107.745.666 1.739.7 2.462.44a31.83 31.83 0 0 1 1.965-.395c.045-.011.102-.023.147-.034 3.467-.757 9.677-1.22 11.834.745 1.829 1.671.531 3.885.384 4.122-.418.632-.294 1.457.271 1.965.011.011 1.197 1.129 1.253 2.631.045 1.005-.429 2.033-1.412 3.049z" fill="#ff6b00"/><rect x="6.5" y="31.5" width="14" height="26" rx="2.5" stroke="#7f8284" stroke-width="3"/></svg>
